Easy-Camper/img/advantages/02.svg

<svg width="32" height="32" viewBox="0 0 32 32" fill="none" xmlns="http://www.w3.org/2000/svg">
<path d="M4.00008 8.00008C3.26675 8.00008 2.66675 8.60008 2.66675 9.33342V26.6667C2.66675 28.1334 3.86675 29.3334 5.33341 29.3334H22.6667C23.4001 29.3334 24.0001 28.7334 24.0001 28.0001C24.0001 27.2667 23.4001 26.6667 22.6667 26.6667H6.66675C5.93341 26.6667 5.33341 26.0667 5.33341 25.3334V9.33342C5.33341 8.60008 4.73341 8.00008 4.00008 8.00008ZM26.6667 2.66675H10.6667C9.20008 2.66675 8.00008 3.86675 8.00008 5.33341V21.3334C8.00008 22.8001 9.20008 24.0001 10.6667 24.0001H26.6667C28.1334 24.0001 29.3334 22.8001 29.3334 21.3334V5.33341C29.3334 3.86675 28.1334 2.66675 26.6667 2.66675ZM24.0001 14.6667H13.3334C12.6001 14.6667 12.0001 14.0667 12.0001 13.3334C12.0001 12.6001 12.6001 12.0001 13.3334 12.0001H24.0001C24.7334 12.0001 25.3334 12.6001 25.3334 13.3334C25.3334 14.0667 24.7334 14.6667 24.0001 14.6667ZM18.6667 20.0001H13.3334C12.6001 20.0001 12.0001 19.4001 12.0001 18.6667C12.0001 17.9334 12.6001 17.3334 13.3334 17.3334H18.6667C19.4001 17.3334 20.0001 17.9334 20.0001 18.6667C20.0001 19.4001 19.4001 20.0001 18.6667 20.0001ZM24.0001 9.33342H13.3334C12.6001 9.33342 12.0001 8.73342 12.0001 8.00008C12.0001 7.26675 12.6001 6.66675 13.3334 6.66675H24.0001C24.7334 6.66675 25.3334 7.26675 25.3334 8.00008C25.3334 8.73342 24.7334 9.33342 24.0001 9.33342Z" fill="#444B53"/>
</svg>

<svg width="32" height="32" fill="none" xmlns="http://www.w3.org/2000/svg"><path d="M4 8c-.733 0-1.333.6-1.333 1.333v17.334c0 1.466 1.2 2.666 2.666 2.666h17.334c.733 0 1.333-.6 1.333-1.333s-.6-1.333-1.333-1.333h-16c-.734 0-1.334-.6-1.334-1.334v-16C5.333 8.6 4.733 8 4 8zm22.667-5.333h-16A2.674 2.674 0 008 5.333v16C8 22.8 9.2 24 10.667 24h16c1.466 0 2.666-1.2 2.666-2.667v-16c0-1.466-1.2-2.666-2.666-2.666zm-2.667 12H13.333c-.733 0-1.333-.6-1.333-1.334C12 12.6 12.6 12 13.333 12H24c.733 0 1.333.6 1.333 1.333 0 .734-.6 1.334-1.333 1.334zM18.667 20h-5.334C12.6 20 12 19.4 12 18.667c0-.734.6-1.334 1.333-1.334h5.334c.733 0 1.333.6 1.333 1.334C20 19.4 19.4 20 18.667 20zM24 9.333H13.333C12.6 9.333 12 8.733 12 8s.6-1.333 1.333-1.333H24c.733 0 1.333.6 1.333 1.333s-.6 1.333-1.333 1.333z" fill="#444B53"/></svg>
